!!!COM: Anonymous
!!!OTL@@POL: Tobie nad pomysł
!!!TXO: Polish
!!!ODT: 
!!!GTL: Hymnbook L 1642(a)
!!!ARL: Biblioteka Diecezjalna w Sandomierzu 
!!!voices:	4
**kern	**text	**text	**kern	**text	**text	**kern	**text	**text	**kern	**text	**text
*staff4	*staff4	*staff4	*staff3	*staff3	*staff3	*staff2	*staff2	*staff2	*staff1	*staff1	*staff1
*I"Basso	*	*	*I"Canto III	*	*	*I"Canto II	*	*	*I"Canto I	*	*
=1-	=1-	=1-	=1-	=1-	=1-	=1-	=1-	=1-	=1-	=1-	=1-
*clefF4	*	*	*clefG2	*	*	*clefG2	*	*	*clefG2	*	*
*k[]	*	*	*k[]	*	*	*k[]	*	*	*k[]	*	*
*met(c|)	*	*	*met(c|)	*	*	*met(c|)	*	*	*met(c|)	*	*
*M2/2	*	*	*M2/2	*	*	*M2/2	*	*	*M2/2	*	*
2.D\	To-	Wzna-	1f	To-	Wzna-	1a	To-	Wzna-	1dd	To-	Wzna-
4C/	.	.	.	.	.	.	.	.	.	.	.
=2	=2	=2	=2	=2	=2	=2	=2	=2	=2	=2	=2
2BB/	-bie	-wia-	2g/	-bie	-wia-	2b\	-bie	-wia-	2dd\	-bie	-wia-
2AA/	nad	-my	[2a/	nad	-my	2cc\	nad	-my	2cc\	nad	-my
=3	=3	=3	=3	=3	=3	=3	=3	=3	=3	=3	=3
1C	po-	Pan-	4a/]	.	.	4cc\	po-	Pan-	1ee	po-	Pan-
.	.	.	4g/	.	.	4b\	.	.	.	.	.
.	.	.	[2g/	po-	Pan-	4a/	.	.	.	.	.
.	.	.	.	.	.	4g/	.	.	.	.	.
=4	=4	=4	=4	=4	=4	=4	=4	=4	=4	=4	=4
1D	-mysł	-no	2g/]	.	.	1a	-mysł	-no	1dd	-mysł	-no
.	.	.	2f#i/	-mysł	-no	.	.	.	.	.	.
=5	=5	=5	=5	=5	=5	=5	=5	=5	=5	=5	=5
1E	do-	rzecz	1g	do-	rzecz	2g/	do-	rzecz	1b	do-	rzecz
.	.	.	.	.	.	2g/	-wcip	Ga-	.	.	.
=6	=6	=6	=6	=6	=6	=6	=6	=6	=6	=6	=6
2AA/	-wcip	Ga-	2e/	-wcip	Ga-	1a	i	-bry-	2cc#i\	-wcip	Ga-
2D\	i	-bry-	2f/	i	-bry-	.	.	.	4dd\	i	-bry-
.	.	.	.	.	.	.	.	.	4ff\	.	.
=7	=7	=7	=7	=7	=7	=7	=7	=7	=7	=7	=7
1GG	wy-	-je-	2.g/	wy-	-je-	1b-	wy-	-je-	4ee\	wy-	-je-
.	.	.	.	.	.	.	.	.	4dd\	.	.
.	.	.	.	.	.	.	.	.	[2dd\	-mo-	-lo-
.	.	.	4f/	.	.	.	.	.	.	.	.
=8	=8	=8	=8	=8	=8	=8	=8	=8	=8	=8	=8
1AA	-mo-	-lo-	4e/	.	.	1a	-mo-	-lo-	2dd\]	.	.
.	.	.	4d/	.	.	.	.	.	.	.	.
.	.	.	2e/	-mo-	-lo-	.	.	.	2cc#\	.	.
=9	=9	=9	=9	=9	=9	=9	=9	=9	=9	=9	=9
1D	-wę	-wę	1d	-wę	-wę	1f#	-wę	-wę	1dd	-wę	-wę
=10:|!	=10:|!	=10:|!	=10:|!	=10:|!	=10:|!	=10:|!	=10:|!	=10:|!	=10:|!	=10:|!	=10:|!
1D	Sło-	.	1f	Sło-	.	1a	Sło-	.	1dd	Sło-	.
=11	=11	=11	=11	=11	=11	=11	=11	=11	=11	=11	=11
2C/	-wem	.	2g/	-wem	.	2cc\	-wem	.	2ee\	-wem	.
2C/	nie-	.	2g/	nie-	.	2cc\	nie-	.	2ee\	nie	.
=12	=12	=12	=12	=12	=12	=12	=12	=12	=12	=12	=12
1F	-zwy-	.	1a	-zwy-	.	1cc	-zwy-	.	1ff	zwy-	.
=13	=13	=13	=13	=13	=13	=13	=13	=13	=13	=13	=13
1C	-kłym	.	1g	-kłym	.	1cc	-kłym	.	1ee	-kłym	.
=14	=14	=14	=14	=14	=14	=14	=14	=14	=14	=14	=14
2.D\	no-	.	2.f/	no-	.	2.a/	no-	.	2.dd\	no-	.
4D\	-wi-	.	4f/	-wi-	.	4a/	-wi-	.	4dd\	-wi-	.
=15	=15	=15	=15	=15	=15	=15	=15	=15	=15	=15	=15
2GG/	-ny	.	2g/	-ny	.	2b-\	-ny	.	2dd\	-ny	.
2AA/	od	.	2e/	od	.	2a/	od	.	2cc#\	od	.
=16	=16	=16	=16	=16	=16	=16	=16	=16	=16	=16	=16
1BB-	Pa-	.	1d	Pa-	.	2a/	Pa-	.	1dd	Pa-	.
.	.	.	.	.	.	2g/	.	.	.	.	.
=17	=17	=17	=17	=17	=17	=17	=17	=17	=17	=17	=17
1AA	-na	.	1e	-na	.	1a	-na	.	1cc#	-na	.
=18	=18	=18	=18	=18	=18	=18	=18	=18	=18	=18	=18
1AA	Bądź	.	2.e/	Bądź	.	1a	Bądź	.	2.cc#i\	Bądź	.
.	.	.	4f/	.	.	.	.	.	4dd\	.	.
=19	=19	=19	=19	=19	=19	=19	=19	=19	=19	=19	=19
2GG/	po-	.	2g/	po-	.	2b-\	po-	.	4ee\	po-	.
.	.	.	.	.	.	.	.	.	4cc#i\	.	.
2BB-/	-zdro-	.	2f/	-zdro-	.	2g/	-zdro-	.	[2dd\	-zdro-	.
=20	=20	=20	=20	=20	=20	=20	=20	=20	=20	=20	=20
1AA	-wio-	.	1e	-wio-	.	1a	-wio-	.	2dd\]	.	.
.	.	.	.	.	.	.	.	.	2cc#\	-wio-	.
=21	=21	=21	=21	=21	=21	=21	=21	=21	=21	=21	=21
[1D	-na.	.	[1d	-na.	.	[1f#i	-na.	.	[1dd	-na.	.
=22	=22	=22	=22	=22	=22	=22	=22	=22	=22	=22	=22
1D]	.	.	1d]	.	.	1f#]	.	.	1dd]	.	.
==	==	==	==	==	==	==	==	==	==	==	==
*-	*-	*-	*-	*-	*-	*-	*-	*-	*-	*-	*-
!!!GTL: Hymnbook L 1642(a)
!!!EFL: 9/34
!!!YEM: Creative Commons CC/BY/NC/SA 4.0
!!!ENC: Marcin Konik
!!!END: 2015-01-08 
!!!EED: Marcin Konik
!!!EEV: 
!!!ONB: Translated from MusicXML and edited by Marcin Konik
!!!CharacterEncoding: utf-8
!!!RDF**kern: i=editorial accidental
!!muse2ps: z14jc180F
!!title: @{OTL}, @{GTL}: @{pag}, ed. @{ENC}
